public/images/circle-matrix.svg

<svg width="60" height="60" viewBox="0 0 60 60" fill="none" xmlns="http://www.w3.org/2000/svg">
<path d="M30.2534 59.2434C46.5458 59.2434 59.7534 46.0358 59.7534 29.7434C59.7534 13.451 46.5458 0.243408 30.2534 0.243408C13.961 0.243408 0.753418 13.451 0.753418 29.7434C0.753418 46.0358 13.961 59.2434 30.2534 59.2434Z" fill="#00C3CD"/>
<path d="M43.3336 44.9784V14.4784H41.1436V13.7484H44.1836V45.7484H41.1436V45.0184L43.3336 44.9784Z" fill="white"/>
<path d="M24.4637 24.1784V25.7184H24.5037C24.8937 25.1584 25.3937 24.6884 25.9937 24.3484C26.5737 24.0284 27.2437 23.8684 27.9837 23.8684C28.7237 23.8684 29.3637 24.0084 29.9537 24.2884C30.5537 24.5684 31.0037 25.0584 31.3137 25.7684C31.6537 25.2684 32.1137 24.8284 32.6937 24.4484C33.2737 24.0684 33.9637 23.8784 34.7537 23.8784C35.3537 23.8784 35.9137 23.9484 36.4237 24.0984C36.9337 24.2484 37.3737 24.4784 37.7437 24.8084C38.1137 25.1284 38.3937 25.5584 38.6037 26.0784C38.8037 26.5984 38.9137 27.2284 38.9137 27.9684V35.5984H35.7837V29.1384C35.7837 28.7584 35.7737 28.3984 35.7437 28.0584C35.7237 27.7484 35.6437 27.4484 35.5037 27.1784C35.3737 26.9284 35.1637 26.7184 34.9237 26.5784C34.6637 26.4284 34.3137 26.3584 33.8737 26.3584C33.4337 26.3584 33.0737 26.4484 32.8037 26.6084C32.5337 26.7784 32.3137 26.9984 32.1637 27.2684C32.0037 27.5584 31.9037 27.8684 31.8537 28.1984C31.8037 28.5484 31.7737 28.8984 31.7737 29.2484V35.5984H28.6437V29.1984C28.6437 28.8584 28.6437 28.5284 28.6237 28.1984C28.6137 27.8884 28.5537 27.5784 28.4337 27.2784C28.3237 26.9984 28.1337 26.7684 27.8837 26.6084C27.6237 26.4384 27.2437 26.3584 26.7437 26.3584C26.5437 26.3584 26.3537 26.3984 26.1637 26.4584C25.9037 26.5284 25.6637 26.6584 25.4637 26.8284C25.2337 27.0084 25.0437 27.2784 24.8837 27.6184C24.7237 27.9684 24.6437 28.4184 24.6437 28.9784V35.5984H21.5137V24.1984L24.4837 24.1784H24.4637Z" fill="white"/>
<path d="M17.1737 14.5084V45.0084H19.3637V45.7384H16.3237V13.7384H19.3537V14.4684L17.1737 14.5084Z" fill="white"/>
</svg>

<svg fill="none" height="60" viewBox="0 0 60 60" width="60" xmlns="http://www.w3.org/2000/svg"><path d="m30.2534 59.2434c16.2924 0 29.5-13.2076 29.5-29.5s-13.2076-29.499992-29.5-29.499992-29.499982 13.207592-29.499982 29.499992 13.207582 29.5 29.499982 29.5z" fill="#00c3cd"/><g fill="#fff"><path d="m43.3336 44.9784v-30.5h-2.19v-.73h3.04v32h-3.04v-.73z"/><path d="m24.4637 24.1784v1.54h.04c.39-.56.89-1.03 1.49-1.37.58-.32 1.25-.48 1.99-.48s1.38.14 1.97.42c.6.28 1.05.77 1.36 1.48.34-.5.8-.94 1.38-1.32s1.27-.57 2.06-.57c.6 0 1.16.07 1.67.22s.95.38 1.32.71c.37.32.65.75.86 1.27.2.52.31 1.15.31 1.89v7.63h-3.13v-6.46c0-.38-.01-.74-.04-1.08-.02-.31-.1-.61-.24-.88-.13-.25-.34-.46-.58-.6-.26-.15-.61-.22-1.05-.22s-.8.09-1.07.25c-.27.17-.49.39-.64.66-.16.29-.26.6-.31.93-.05.35-.08.7-.08 1.05v6.35h-3.13v-6.4c0-.34 0-.67-.02-1-.01-.31-.07-.62-.19-.92-.11-.28-.3-.51-.55-.67-.26-.17-.64-.25-1.14-.25-.2 0-.39.04-.58.1-.26.07-.5.2-.7.37-.23.18-.42.45-.58.79-.16.35-.24.8-.24 1.36v6.62h-3.13v-11.4l2.97-.02z"/><path d="m17.1737 14.5084v30.5h2.19v.73h-3.04v-32h3.03v.73z"/></g></svg>
